svgs/frozen.svg

<svg width="192" height="192" viewBox="0 0 192 192" fill="none" xmlns="http://www.w3.org/2000/svg">
<path d="M21 131.701L46.4613 106.24H72.476L47.0148 131.701H21Z" stroke="black" stroke-width="10" stroke-linejoin="round"/>
<path d="M21 60.8524L46.4613 86.3137H72.476L47.0148 60.8524H21Z" stroke="black" stroke-width="10" stroke-linejoin="round"/>
<path d="M171 131.701L145.539 106.24H119.524L144.985 131.701H171Z" stroke="black" stroke-width="10" stroke-linejoin="round"/>
<path d="M171 60.8524L145.539 86.3137H119.524L144.985 60.8524H171Z" stroke="black" stroke-width="10" stroke-linejoin="round"/>
<path d="M60.8525 171L86.3138 145.539V119.524L60.8525 144.985V171Z" stroke="black" stroke-width="10" stroke-linejoin="round"/>
<path d="M131.702 171L106.24 145.539V119.524L131.702 144.985V171Z" stroke="black" stroke-width="10" stroke-linejoin="round"/>
<path d="M60.8525 21L86.3138 46.4613V72.476L60.8525 47.0148V21Z" stroke="black" stroke-width="10" stroke-linejoin="round"/>
<path d="M131.702 21L106.24 46.4613V72.476L131.702 47.0148V21Z" stroke="black" stroke-width="10" stroke-linejoin="round"/>
</svg>

<svg xmlns="http://www.w3.org/2000/svg" width="192" height="192" fill="none" viewBox="0 0 192 192"><path stroke="#000" stroke-linejoin="round" stroke-width="10" d="m21 131.701 25.461-25.461h26.015l-25.461 25.461zm0-70.849 25.461 25.462h26.015L47.015 60.852zm150 70.849-25.461-25.461h-26.015l25.461 25.461zm0-70.849-25.461 25.462h-26.015l25.461-25.462zM60.853 171l25.46-25.461v-26.015l-25.46 25.461zm70.849 0-25.462-25.461v-26.015l25.462 25.461zM60.853 21l25.46 25.461v26.015l-25.46-25.461zm70.849 0L106.24 46.461v26.015l25.462-25.461z"/></svg>
